X:1
T:Title
%%score { ( 1 3 ) | ( 2 4 ) }
L:1/8
M:4/4
K:F
V:1 treble nm="Grand Piano"
V:3 treble 
V:2 bass 
V:4 bass 
V:1
 z4 z2[Q:1/4=100] A2 | A2 A2 A3 [EG] | z Acd c3 A | [EG]2 [FA]2 [GB]3 [EG] | A2 B2 c3 [DGB] | %5
 [CFA]2 [CFA]2 [CFA]3 [B,EG] | A,Acd c3 A | G2 c2 c3 G |[M:3/4] e2 d2 [Ec]2 |[M:3/8] [Fc]3 | %10
[M:4/4] [FA]2 [^Fd]2 [DGB]2 [CGc]2 | [CFA]2 [CFc]2 [CEG]2 [CGB]2 | [CFA]2 [D^Fd]2 [DGB]2 [CGc]2 | %13
[M:9/8] [CFA]2 [F=B]- [FB] [Ec]2- [Ec] c2 |[M:4/4] c6 z2 | f6 z2 | z Acd c3 [DGB] | %17
[M:3/4] [CFA]2 [B,EG]2 [A,F]2 |] %18
V:2
 z4 z2 [F,CF]2 | [F,CF]2 [F,CF]2 [F,CF]3 [C,B,] | F,-[F,C][F,F]-[F,B,F] [F,A,F]3 [F,CF] | %3
 [C,C]2 [C,C]2 [C,C]3 [C,C] | [F,CF]2 [F,G,F]2 [F,A,F]3 E, | F,2 F,2 F,3 C, | %6
 z[K:treble] C[F,F]-[F,B,F] [F,A,F]3 [F,CF] | [G,CE]2 [G,EG]2 [G,EG]3 [G,CE] | %8
[M:3/4] [G,CG]2 [G,=B,F]2[K:bass] [C,C]2 |[M:3/8] [F,A,]3 |[M:4/4] z2 .A,2 z4 | F,2 A,,2 C,2 E,2 | %12
 F,2 D,2 G,2 E,2 |[M:9/8] F,2 [D,G,]- [D,G,] [C,G,]2- [C,G,][K:treble] =B2 | %14
[M:4/4] A6[K:bass][K:treble] z2 | A6[K:bass] .A,2 | F,-[F,C][F,F]-[F,B,F] [F,A,F]3 B,, | %17
[M:3/4] C,2 C,2 F,2 |] %18
V:3
 x8 | x8 | F2 z2 z4 | x8 | x8 | x8 | F2 z2 z4 | x8 |[M:3/4] x6 |[M:3/8] x3 |[M:4/4] x8 | x8 | x8 | %13
[M:9/8] x9 |[M:4/4] z2 C2 C2 c2 | z2 C2 C2 cA | F2 z2 z4 |[M:3/4] x6 |] %18
V:4
 x8 | x8 | .A,2 .A,2 z4 | x8 | x8 | x8 | F,2[K:treble] .A,2 z4 | x8 |[M:3/4] x4[K:bass] x2 | %9
[M:3/8] x3 |[M:4/4] [D,D]2 D,-[D,D] G,2 D,2 | x8 | x8 |[M:9/8] x7[K:treble] x2 | %14
[M:4/4] z2[K:bass] F,2 F,2[K:treble] A2 | z2[K:bass] F,2 F,2 [F,F]-[F,CF] | .A,2 .A,2 z4 | %17
[M:3/4] x6 |] %18

